tools/download-figma-icons/icons/solid/filter.svg

<svg width="24" height="24" viewBox="0 0 24 24" fill="none" xmlns="http://www.w3.org/2000/svg">
<path fill-rule="evenodd" clip-rule="evenodd" d="M21.5985 3.45L14.9985 12.2475V21C14.9985 21.2625 14.8642 21.5025 14.646 21.6375C14.526 21.7125 14.3835 21.75 14.2485 21.75C14.136 21.75 14.0235 21.7275 13.9192 21.6675L9.4192 19.4175C9.16421 19.2975 8.99846 19.035 8.99846 18.75V12.2475L2.39846 3.45C2.22671 3.225 2.20421 2.9175 2.33171 2.6625C2.45846 2.4075 2.71346 2.25 2.99846 2.25H20.9985C21.2835 2.25 21.5467 2.4075 21.6742 2.6625C21.8017 2.9175 21.771 3.225 21.5985 3.45Z" fill="black"/>
</svg>

<svg width="24" height="24" viewBox="0 0 24 24" fill="none" xmlns="http://www.w3.org/2000/svg"><path fill-rule="evenodd" clip-rule="evenodd" d="m21.599 3.45-6.6 8.797V21a.747.747 0 0 1-.75.75.65.65 0 0 1-.33-.082l-4.5-2.25A.74.74 0 0 1 9 18.75v-6.502L2.4 3.45a.749.749 0 0 1-.067-.788.739.739 0 0 1 .666-.412h18c.285 0 .549.158.676.413a.749.749 0 0 1-.075.787Z" fill="currentColor"/></svg>
